src/svg/uf214-shirtsinbulk.svg

<svg xmlns="http://www.w3.org/2000/svg" width="27" height="32"><path d="M0 0h27.429v24.857l-13.857 6.036L.001 24.857V0zm25.643 23.696V7.16H1.786v16.536l11.804 5.25zm0-18.321V1.786H1.786v3.589h23.857zM3.232 10.696v2.054h-.661v-2.054h.661zm0 2.643v2.054h-.661v-2.054h.661zm0 2.643v2.054h-.661v-2.054h.661zm0 2.643v2.054h-.661v-2.054h.661zm0 2.643v2.054h-.661v-2.054h.661zm.464 2.553l.268-.607 1.875.839-.268.589zm2.429 1.072l.268-.607 1.875.821-.268.607zm2.411 1.071l.268-.607 1.875.821-.268.607zm2.428 1.054l.268-.589 1.857.821-.268.607zm3.268.232l1.875-.821.268.589-1.875.839zm2.411-1.071l1.875-.821.268.607-1.875.821zm2.428-1.072l1.875-.821.268.607-1.875.821zm2.411-1.053l1.875-.839.268.607-1.875.821zM4.625 2.625v.643H2.589v-.643h2.036zm2.893 0v.643H5.464v-.643h2.054zm2.893 0v.643H8.357v-.643h2.054zm2.875 0v.643H11.25v-.643h2.036zm2.893 0v.643h-2.036v-.643h2.036zm2.892 0v.643h-2.054v-.643h2.054zm2.893 0v.643H19.91v-.643h2.054zm2.875 0v.643h-2.036v-.643h2.036zM3.232 8.696v1.411h-.661V8.053h2.054v.643H3.232zm4.286-.642v.643H5.464v-.643h2.054zm2.893 0v.643H8.357v-.643h2.054zm2.875 0v.643H11.25v-.643h2.036zm2.893 0v.643h-2.036v-.643h2.036zm2.892 0v.643h-2.054v-.643h2.054zm2.893 0v.643H19.91v-.643h2.054zm2.232 2.053V8.696h-1.393v-.643h2.054v2.054h-.661zm0 2.643v-2.054h.661v2.054h-.661zm0 2.643v-2.054h.661v2.054h-.661zm0 2.643v-2.054h.661v2.054h-.661zm0 2.643v-2.054h.661v2.054h-.661zm0 2.642v-2.054h.661v2.054h-.661zm-10.625-.625a5.598 5.598 0 0 1-5.589-5.589c0-3.071 2.518-5.589 5.589-5.589a5.598 5.598 0 0 1 5.589 5.589c0 3.089-2.5 5.589-5.589 5.589zm-2.946-6.803c0 2.714 4.75.732 4.75 2.321 0 .804-1.464.875-2 .875-.75 0-1.821-.161-2.196-.911h-.054l-.554 1.125c.911.571 1.786.75 2.893.75 1.196 0 3.125-.357 3.125-1.911 0-2.946-4.804-1-4.804-2.321 0-.804 1.268-.911 1.821-.911.661 0 1.786.196 2.179.804h.054l.536-1.036c-.929-.375-1.679-.732-2.714-.732-1.232 0-3.036.393-3.036 1.946z"/></svg>

<!-- Generated by IcoMoon.io -->
<svg version="1.1" xmlns="http://www.w3.org/2000/svg" width="27" height="32" viewBox="0 0 27 32">
<path d="M0 0h27.429v24.857l-13.857 6.036-13.571-6.036v-24.857zM25.643 23.696v-16.536h-23.857v16.536l11.804 5.25zM25.643 5.375v-3.589h-23.857v3.589h23.857zM3.232 10.696v2.054h-0.661v-2.054h0.661zM3.232 13.339v2.054h-0.661v-2.054h0.661zM3.232 15.982v2.054h-0.661v-2.054h0.661zM3.232 18.625v2.054h-0.661v-2.054h0.661zM3.232 21.268v2.054h-0.661v-2.054h0.661zM3.696 23.821l0.268-0.607 1.875 0.839-0.268 0.589zM6.125 24.893l0.268-0.607 1.875 0.821-0.268 0.607zM8.536 25.964l0.268-0.607 1.875 0.821-0.268 0.607zM10.964 27.018l0.268-0.589 1.857 0.821-0.268 0.607zM14.232 27.25l1.875-0.821 0.268 0.589-1.875 0.839zM16.643 26.179l1.875-0.821 0.268 0.607-1.875 0.821zM19.071 25.107l1.875-0.821 0.268 0.607-1.875 0.821zM21.482 24.054l1.875-0.839 0.268 0.607-1.875 0.821zM4.625 2.625v0.643h-2.036v-0.643h2.036zM7.518 2.625v0.643h-2.054v-0.643h2.054zM10.411 2.625v0.643h-2.054v-0.643h2.054zM13.286 2.625v0.643h-2.036v-0.643h2.036zM16.179 2.625v0.643h-2.036v-0.643h2.036zM19.071 2.625v0.643h-2.054v-0.643h2.054zM21.964 2.625v0.643h-2.054v-0.643h2.054zM24.839 2.625v0.643h-2.036v-0.643h2.036zM3.232 8.696v1.411h-0.661v-2.054h2.054v0.643h-1.393zM7.518 8.054v0.643h-2.054v-0.643h2.054zM10.411 8.054v0.643h-2.054v-0.643h2.054zM13.286 8.054v0.643h-2.036v-0.643h2.036zM16.179 8.054v0.643h-2.036v-0.643h2.036zM19.071 8.054v0.643h-2.054v-0.643h2.054zM21.964 8.054v0.643h-2.054v-0.643h2.054zM24.196 10.107v-1.411h-1.393v-0.643h2.054v2.054h-0.661zM24.196 12.75v-2.054h0.661v2.054h-0.661zM24.196 15.393v-2.054h0.661v2.054h-0.661zM24.196 18.036v-2.054h0.661v2.054h-0.661zM24.196 20.679v-2.054h0.661v2.054h-0.661zM24.196 23.321v-2.054h0.661v2.054h-0.661zM13.571 22.696c-3.071 0-5.589-2.5-5.589-5.589 0-3.071 2.518-5.589 5.589-5.589 3.089 0 5.589 2.518 5.589 5.589 0 3.089-2.5 5.589-5.589 5.589zM10.625 15.893c0 2.714 4.75 0.732 4.75 2.321 0 0.804-1.464 0.875-2 0.875-0.75 0-1.821-0.161-2.196-0.911h-0.054l-0.554 1.125c0.911 0.571 1.786 0.75 2.893 0.75 1.196 0 3.125-0.357 3.125-1.911 0-2.946-4.804-1-4.804-2.321 0-0.804 1.268-0.911 1.821-0.911 0.661 0 1.786 0.196 2.179 0.804h0.054l0.536-1.036c-0.929-0.375-1.679-0.732-2.714-0.732-1.232 0-3.036 0.393-3.036 1.946z"></path>
</svg>
